{"compressionlevel":-1,"height":64,"infinite":false,"layers":[{"id":1,"image":"../../../../../public/assets/adventure/forest_1_1/rooms_v2/room06a.webp","name":"Background","opacity":1,"type":"imagelayer","visible":true,"x":0,"y":0},{"id":2,"name":"Walkable","objects":[{"height":1680,"id":1,"name":"walkable","type":"walkable","visible":true,"width":880,"x":100,"y":120}],"type":"objectgroup","visible":true},{"id":3,"name":"Entry","objects":[{"id":2,"name":"spawn","point":true,"type":"entry","visible":true,"x":180,"y":960},{"id":3,"name":"from_room_06","point":true,"type":"entry","visible":true,"x":260,"y":960}],"type":"objectgroup","visible":true},{"id":4,"name":"Transition","objects":[{"height":240,"id":4,"name":"06A_to_06","type":"transition","visible":true,"width":120,"x":70,"y":860}],"opacity":0.65,"type":"objectgroup","visible":true},{"id":5,"name":"Collision","objects":[],"type":"objectgroup","visible":true},{"id":6,"name":"NPC","objects":[],"type":"objectgroup","visible":true},{"id":7,"name":"Trigger","objects":[],"type":"objectgroup","visible":true},{"id":8,"name":"Combat","objects":[],"type":"objectgroup","visible":true},{"id":9,"name":"Puzzle","objects":[],"type":"objectgroup","visible":true},{"id":10,"name":"Collectible","objects":[{"id":5,"name":"pc17","point":true,"type":"purple_coin","visible":true,"x":300,"y":420},{"id":6,"name":"pc18","point":true,"type":"purple_coin","visible":true,"x":540,"y":330},{"id":7,"name":"treasure1","point":true,"type":"treasure","visible":true,"x":790,"y":420},{"id":8,"name":"star_piece_3","point":true,"type":"star_piece","visible":true,"x":840,"y":450}],"type":"objectgroup","visible":true},{"id":11,"name":"Secret","objects":[],"type":"objectgroup","visible":true},{"id":12,"name":"Quest","objects":[],"type":"objectgroup","visible":true},{"id":13,"name":"Exit","objects":[],"type":"objectgroup","visible":true}],"nextlayerid":14,"nextobjectid":9,"orientation":"orthogonal","renderorder":"right-down","tiledversion":"1.11.2","tileheight":30,"tilesets":[],"tilewidth":30,"type":"map","version":"1.10","width":36}