{"compressionlevel":-1,"height":64,"infinite":false,"layers":[{"id":1,"image":"../../../../../public/assets/adventure/forest_1_1/rooms_v2/room06.webp","name":"Background","opacity":1,"type":"imagelayer","visible":true,"x":0,"y":0},{"id":2,"name":"Walkable","objects":[{"height":1560,"id":1,"name":"walkable","type":"walkable","visible":true,"width":880,"x":100,"y":180}],"type":"objectgroup","visible":true},{"id":3,"name":"Entry","objects":[{"id":2,"name":"spawn","point":true,"type":"entry","visible":true,"x":540,"y":1660},{"id":3,"name":"from_room_05","point":true,"type":"entry","visible":true,"x":540,"y":1650},{"id":4,"name":"from_room_07","point":true,"type":"entry","visible":true,"x":540,"y":260},{"id":5,"name":"from_room_06a","point":true,"type":"entry","visible":true,"x":860,"y":960}],"type":"objectgroup","visible":true},{"id":4,"name":"Transition","objects":[{"height":120,"id":6,"name":"06_to_07","type":"transition","visible":true,"width":220,"x":430,"y":100},{"height":120,"id":7,"name":"06_to_05","type":"transition","visible":true,"width":220,"x":430,"y":1710},{"height":220,"id":8,"name":"06_to_06A","type":"transition","visible":true,"width":120,"x":870,"y":900}],"opacity":0.65,"type":"objectgroup","visible":true},{"id":5,"name":"Collision","objects":[{"height":180,"id":9,"name":"secret02_wall","type":"collision","visible":true,"width":40,"x":900,"y":910}],"opacity":0.55,"type":"objectgroup","visible":true},{"id":6,"name":"NPC","objects":[],"type":"objectgroup","visible":true},{"id":7,"name":"Trigger","objects":[],"type":"objectgroup","visible":true},{"id":8,"name":"Combat","objects":[],"type":"objectgroup","visible":true},{"id":9,"name":"Puzzle","objects":[],"type":"objectgroup","visible":true},{"id":10,"name":"Collectible","objects":[{"id":10,"name":"pc14","point":true,"type":"purple_coin","visible":true,"x":250,"y":620},{"id":11,"name":"pc15","point":true,"type":"purple_coin","visible":true,"x":830,"y":610},{"id":12,"name":"pc16","point":true,"type":"purple_coin","visible":true,"x":540,"y":450},{"id":13,"name":"star_piece_2","point":true,"type":"star_piece","visible":true,"x":810,"y":330}],"type":"objectgroup","visible":true},{"id":11,"name":"Secret","objects":[{"height":180,"id":14,"name":"secret02_wall","type":"secret","visible":true,"width":40,"x":900,"y":910}],"type":"objectgroup","visible":true},{"id":12,"name":"Quest","objects":[],"type":"objectgroup","visible":true},{"id":13,"name":"Exit","objects":[],"type":"objectgroup","visible":true}],"nextlayerid":14,"nextobjectid":15,"orientation":"orthogonal","renderorder":"right-down","tiledversion":"1.11.2","tileheight":30,"tilesets":[],"tilewidth":30,"type":"map","version":"1.10","width":36}