{"compressionlevel":-1,"height":64,"infinite":false,"layers":[{"id":1,"image":"../../../../../public/assets/adventure/forest_1_1/rooms_v2/room03a.webp","name":"Background","opacity":1,"type":"imagelayer","visible":true,"x":0,"y":0},{"id":2,"name":"Walkable","objects":[{"height":1560,"id":1,"name":"walkable","type":"walkable","visible":true,"width":820,"x":120,"y":180}],"type":"objectgroup","visible":true},{"id":3,"name":"Entry","objects":[{"id":2,"name":"spawn","point":true,"type":"entry","visible":true,"x":920,"y":960},{"id":3,"name":"from_room_03","point":true,"type":"entry","visible":true,"x":850,"y":960}],"type":"objectgroup","visible":true},{"id":4,"name":"Transition","objects":[{"height":220,"id":4,"name":"03A_to_03","type":"transition","visible":true,"width":120,"x":890,"y":820}],"opacity":0.65,"type":"objectgroup","visible":true},{"id":5,"name":"Collision","objects":[],"type":"objectgroup","visible":true},{"id":6,"name":"NPC","objects":[],"type":"objectgroup","visible":true},{"id":7,"name":"Trigger","objects":[],"type":"objectgroup","visible":true},{"id":8,"name":"Combat","objects":[],"type":"objectgroup","visible":true},{"id":9,"name":"Puzzle","objects":[],"type":"objectgroup","visible":true},{"id":10,"name":"Collectible","objects":[{"id":5,"name":"pc9","point":true,"type":"purple_coin","visible":true,"x":270,"y":510},{"id":6,"name":"pc10","point":true,"type":"purple_coin","visible":true,"x":820,"y":620},{"id":7,"name":"dirty_teddy","point":true,"type":"quest_item","visible":true,"x":520,"y":1180},{"id":8,"name":"star_piece_1","point":true,"type":"star_piece","visible":true,"x":180,"y":300}],"type":"objectgroup","visible":true},{"id":11,"name":"Secret","objects":[{"height":100,"id":9,"name":"secret01_bushes","type":"secret","visible":true,"width":120,"x":130,"y":260}],"type":"objectgroup","visible":true},{"id":12,"name":"Quest","objects":[{"height":400,"id":10,"name":"lost_teddy","type":"quest_spawn","visible":true,"width":710,"x":180,"y":650}],"type":"objectgroup","visible":true},{"id":13,"name":"Exit","objects":[],"type":"objectgroup","visible":true}],"nextlayerid":14,"nextobjectid":11,"orientation":"orthogonal","renderorder":"right-down","tiledversion":"1.11.2","tileheight":30,"tilesets":[],"tilewidth":30,"type":"map","version":"1.10","width":36}