{"compressionlevel":-1,"height":64,"infinite":false,"layers":[{"id":1,"image":"../../../../../public/assets/adventure/forest_1_1/rooms_v2/room07.webp","name":"Background","opacity":1,"type":"imagelayer","visible":true,"x":0,"y":0},{"id":2,"name":"Walkable","objects":[{"height":1560,"id":1,"name":"walkable","type":"walkable","visible":true,"width":840,"x":120,"y":180}],"type":"objectgroup","visible":true},{"id":3,"name":"Entry","objects":[{"id":2,"name":"spawn","point":true,"type":"entry","visible":true,"x":540,"y":1660},{"id":3,"name":"from_room_06","point":true,"type":"entry","visible":true,"x":540,"y":1660},{"id":4,"name":"from_room_08","point":true,"type":"entry","visible":true,"x":540,"y":260}],"type":"objectgroup","visible":true},{"id":4,"name":"Transition","objects":[{"height":120,"id":5,"name":"07_to_08","type":"transition","visible":true,"width":220,"x":430,"y":90},{"height":120,"id":6,"name":"07_to_06","type":"transition","visible":true,"width":220,"x":430,"y":1710}],"opacity":0.65,"type":"objectgroup","visible":true},{"id":5,"name":"Collision","objects":[{"height":200,"id":7,"name":"terrain_r07_tent_topleft","type":"collision","visible":true,"width":220,"x":160,"y":340},{"height":180,"id":8,"name":"terrain_r07_tent_topright","type":"collision","visible":true,"width":200,"x":640,"y":370},{"height":180,"id":9,"name":"terrain_r07_tent_midleft","type":"collision","visible":true,"width":140,"x":150,"y":1170},{"height":220,"id":10,"name":"terrain_r07_tent_bottomright","type":"collision","visible":true,"width":240,"x":680,"y":1400}],"opacity":0.55,"type":"objectgroup","visible":true},{"id":6,"name":"NPC","objects":[],"type":"objectgroup","visible":true},{"id":7,"name":"Trigger","objects":[],"type":"objectgroup","visible":true},{"id":8,"name":"Combat","objects":[{"height":520,"id":11,"name":"goblin_camp_combat","type":"combat","visible":true,"width":600,"x":240,"y":560}],"type":"objectgroup","visible":true},{"id":9,"name":"Puzzle","objects":[],"type":"objectgroup","visible":true},{"id":10,"name":"Collectible","objects":[{"id":12,"name":"pc19","point":true,"type":"purple_coin","visible":true,"x":320,"y":1260},{"id":13,"name":"pc20","point":true,"type":"purple_coin","visible":true,"x":760,"y":1230}],"type":"objectgroup","visible":true},{"id":11,"name":"Secret","objects":[],"type":"objectgroup","visible":true},{"id":12,"name":"Quest","objects":[],"type":"objectgroup","visible":true},{"id":13,"name":"Exit","objects":[],"type":"objectgroup","visible":true}],"nextlayerid":14,"nextobjectid":14,"orientation":"orthogonal","renderorder":"right-down","tiledversion":"1.11.2","tileheight":30,"tilesets":[],"tilewidth":30,"type":"map","version":"1.10","width":36}