{"compressionlevel":-1,"height":64,"infinite":false,"layers":[{"id":1,"image":"../../../../../public/assets/adventure/forest_1_1/rooms_v2/room02.webp","name":"Background","opacity":1,"type":"imagelayer","visible":true,"x":0,"y":0},{"draworder":"topdown","id":2,"name":"Walkable","objects":[{"height":1540,"id":1,"name":"walkable","rotation":0,"type":"walkable","visible":true,"width":720,"x":180,"y":180}],"type":"objectgroup","visible":true},{"draworder":"topdown","id":3,"name":"Entry","objects":[{"id":2,"name":"spawn","point":true,"type":"entry","visible":true,"x":540,"y":1660},{"id":3,"name":"from_room_01","point":true,"type":"entry","visible":true,"x":540,"y":1600},{"id":4,"name":"from_room_03","point":true,"type":"entry","visible":true,"x":540,"y":260}],"type":"objectgroup","visible":true},{"draworder":"topdown","id":4,"name":"Transition","objects":[{"height":120,"id":5,"name":"02_to_03","type":"transition","visible":true,"width":220,"x":430,"y":110},{"height":120,"id":6,"name":"02_to_01","type":"transition","visible":true,"width":220,"x":430,"y":1680}],"opacity":0.65,"type":"objectgroup","visible":true},{"draworder":"topdown","id":5,"name":"Collision","objects":[],"type":"objectgroup","visible":true},{"draworder":"topdown","id":6,"name":"NPC","objects":[],"type":"objectgroup","visible":true},{"draworder":"topdown","id":7,"name":"Trigger","objects":[],"type":"objectgroup","visible":true},{"draworder":"topdown","id":8,"name":"Combat","objects":[],"type":"objectgroup","visible":true},{"draworder":"topdown","id":9,"name":"Puzzle","objects":[],"type":"objectgroup","visible":true},{"draworder":"topdown","id":10,"name":"Collectible","objects":[{"id":7,"name":"pc4","point":true,"type":"purple_coin","visible":true,"x":400,"y":1250},{"id":8,"name":"pc5","point":true,"type":"purple_coin","visible":true,"x":670,"y":980},{"id":9,"name":"pc6","point":true,"type":"purple_coin","visible":true,"x":540,"y":620}],"type":"objectgroup","visible":true},{"draworder":"topdown","id":11,"name":"Secret","objects":[],"type":"objectgroup","visible":true},{"draworder":"topdown","id":12,"name":"Quest","objects":[],"type":"objectgroup","visible":true},{"draworder":"topdown","id":13,"name":"Exit","objects":[],"type":"objectgroup","visible":true}],"nextlayerid":14,"nextobjectid":10,"orientation":"orthogonal","renderorder":"right-down","tiledversion":"1.11.2","tileheight":30,"tilesets":[],"tilewidth":30,"type":"map","version":"1.10","width":36}