{"compressionlevel":-1,"height":64,"infinite":false,"layers":[{"id":1,"image":"../../../../../public/assets/adventure/forest_1_1/rooms_v2/room08.webp","name":"Background","opacity":1,"type":"imagelayer","visible":true,"x":0,"y":0},{"id":2,"name":"Walkable","objects":[{"height":1640,"id":1,"name":"walkable","type":"walkable","visible":true,"width":840,"x":120,"y":140}],"type":"objectgroup","visible":true},{"id":3,"name":"Entry","objects":[{"id":2,"name":"spawn","point":true,"type":"entry","visible":true,"x":540,"y":1660},{"id":3,"name":"from_room_07","point":true,"type":"entry","visible":true,"x":540,"y":1660}],"type":"objectgroup","visible":true},{"id":4,"name":"Transition","objects":[{"height":120,"id":4,"name":"08_to_09","type":"transition","visible":true,"width":220,"x":430,"y":90},{"height":120,"id":5,"name":"08_to_07","type":"transition","visible":true,"width":220,"x":430,"y":1710}],"opacity":0.65,"type":"objectgroup","visible":true},{"id":5,"name":"Collision","objects":[{"height":180,"id":6,"name":"terrain_r08_gate_post_l","type":"collision","visible":true,"width":110,"x":356,"y":1517},{"height":180,"id":7,"name":"terrain_r08_gate_post_r","type":"collision","visible":true,"width":110,"x":616,"y":1517},{"height":230,"id":8,"name":"terrain_r08_arch_pillar_l","type":"collision","visible":true,"width":90,"x":259,"y":154},{"height":230,"id":9,"name":"terrain_r08_arch_pillar_r","type":"collision","visible":true,"width":90,"x":734,"y":154}],"opacity":0.55,"type":"objectgroup","visible":true},{"id":6,"name":"NPC","objects":[],"type":"objectgroup","visible":true},{"id":7,"name":"Trigger","objects":[{"height":220,"id":10,"name":"t_altar_cutscene","type":"trigger","visible":true,"width":320,"x":380,"y":520}],"type":"objectgroup","visible":true},{"id":8,"name":"Combat","objects":[],"type":"objectgroup","visible":true},{"id":9,"name":"Puzzle","objects":[],"type":"objectgroup","visible":true},{"id":10,"name":"Collectible","objects":[],"type":"objectgroup","visible":true},{"id":11,"name":"Secret","objects":[],"type":"objectgroup","visible":true},{"id":12,"name":"Quest","objects":[],"type":"objectgroup","visible":true},{"id":13,"name":"Exit","objects":[],"type":"objectgroup","visible":true}],"nextlayerid":14,"nextobjectid":11,"orientation":"orthogonal","renderorder":"right-down","tiledversion":"1.11.2","tileheight":30,"tilesets":[],"tilewidth":30,"type":"map","version":"1.10","width":36}