{"compressionlevel":-1,"height":64,"infinite":false,"layers":[{"id":1,"image":"../../../../../public/assets/adventure/forest_1_1/rooms_v2/room03.webp","name":"Background","opacity":1,"type":"imagelayer","visible":true,"x":0,"y":0},{"id":2,"name":"Walkable","objects":[{"height":1460,"id":1,"name":"walkable","type":"walkable","visible":true,"width":800,"x":140,"y":220}],"type":"objectgroup","visible":true},{"id":3,"name":"Entry","objects":[{"id":2,"name":"spawn","point":true,"type":"entry","visible":true,"x":540,"y":1660},{"id":3,"name":"from_room_02","point":true,"type":"entry","visible":true,"x":540,"y":1640},{"id":4,"name":"from_room_05","point":true,"type":"entry","visible":true,"x":540,"y":280},{"id":5,"name":"from_room_03a","point":true,"type":"entry","visible":true,"x":260,"y":930}],"type":"objectgroup","visible":true},{"id":4,"name":"Transition","objects":[{"height":140,"id":6,"name":"03_to_05","type":"transition","visible":true,"width":220,"x":430,"y":110},{"height":150,"id":7,"name":"03_to_02","type":"transition","visible":true,"width":220,"x":430,"y":1650},{"height":220,"id":8,"name":"03_to_03A","type":"transition","visible":true,"width":120,"x":70,"y":820}],"opacity":0.65,"type":"objectgroup","visible":true},{"id":5,"name":"Collision","objects":[],"type":"objectgroup","visible":true},{"id":6,"name":"NPC","objects":[{"id":9,"name":"lost_girl","point":true,"type":"npc","visible":true,"x":545,"y":980}],"type":"objectgroup","visible":true},{"id":7,"name":"Trigger","objects":[],"type":"objectgroup","visible":true},{"id":8,"name":"Combat","objects":[],"type":"objectgroup","visible":true},{"id":9,"name":"Puzzle","objects":[],"type":"objectgroup","visible":true},{"id":10,"name":"Collectible","objects":[{"id":10,"name":"pc7","point":true,"type":"purple_coin","visible":true,"x":310,"y":960},{"id":11,"name":"pc8","point":true,"type":"purple_coin","visible":true,"x":770,"y":960}],"type":"objectgroup","visible":true},{"id":11,"name":"Secret","objects":[],"type":"objectgroup","visible":true},{"id":12,"name":"Quest","objects":[],"type":"objectgroup","visible":true},{"id":13,"name":"Exit","objects":[],"type":"objectgroup","visible":true}],"nextlayerid":14,"nextobjectid":12,"orientation":"orthogonal","renderorder":"right-down","tiledversion":"1.11.2","tileheight":30,"tilesets":[],"tilewidth":30,"type":"map","version":"1.10","width":36}