{"compressionlevel":-1,"height":64,"infinite":false,"layers":[{"id":1,"image":"../../../../../public/assets/adventure/forest_1_1/rooms_v2/room05.webp","name":"Background","opacity":1,"type":"imagelayer","visible":true,"x":0,"y":0},{"id":2,"name":"Walkable","objects":[{"height":1500,"id":1,"name":"walkable","type":"walkable","visible":true,"width":840,"x":120,"y":220}],"type":"objectgroup","visible":true},{"id":3,"name":"Entry","objects":[{"id":2,"name":"spawn","point":true,"type":"entry","visible":true,"x":540,"y":1710},{"id":3,"name":"from_room_03","point":true,"type":"entry","visible":true,"x":540,"y":1680},{"id":4,"name":"from_room_06","point":true,"type":"entry","visible":true,"x":540,"y":290}],"type":"objectgroup","visible":true},{"id":4,"name":"Transition","objects":[{"height":160,"id":5,"name":"05_to_06","type":"transition","visible":true,"width":220,"x":430,"y":90},{"height":140,"id":6,"name":"05_to_03","type":"transition","visible":true,"width":220,"x":430,"y":1690}],"opacity":0.65,"type":"objectgroup","visible":true},{"id":5,"name":"Collision","objects":[{"height":40,"id":7,"name":"puzzle_vine_gate","type":"collision","visible":true,"width":200,"x":440,"y":180},{"height":150,"id":8,"name":"terrain_r05_water_top_l","type":"collision","visible":true,"width":260,"x":120,"y":250},{"height":150,"id":9,"name":"terrain_r05_water_top_r","type":"collision","visible":true,"width":260,"x":700,"y":250},{"height":250,"id":10,"name":"terrain_r05_water_uppermid_l","type":"collision","visible":true,"width":140,"x":120,"y":400},{"height":250,"id":11,"name":"terrain_r05_water_uppermid_r","type":"collision","visible":true,"width":140,"x":820,"y":400},{"height":250,"id":12,"name":"terrain_r05_water_lowermid_l","type":"collision","visible":true,"width":140,"x":120,"y":1270},{"height":250,"id":13,"name":"terrain_r05_water_lowermid_r","type":"collision","visible":true,"width":140,"x":820,"y":1270},{"height":170,"id":14,"name":"terrain_r05_water_bottom_l","type":"collision","visible":true,"width":260,"x":120,"y":1520},{"height":170,"id":15,"name":"terrain_r05_water_bottom_r","type":"collision","visible":true,"width":260,"x":700,"y":1520}],"opacity":0.55,"type":"objectgroup","visible":true},{"id":6,"name":"NPC","objects":[],"type":"objectgroup","visible":true},{"id":7,"name":"Trigger","objects":[],"type":"objectgroup","visible":true},{"id":8,"name":"Combat","objects":[{"height":180,"id":16,"name":"bridge_combat","type":"combat","visible":true,"width":360,"x":360,"y":920}],"type":"objectgroup","visible":true},{"id":9,"name":"Puzzle","objects":[{"id":17,"name":"brazier_01","point":true,"type":"brazier","visible":true,"x":280,"y":600},{"id":18,"name":"brazier_02","point":true,"type":"brazier","visible":true,"x":540,"y":450},{"id":19,"name":"brazier_03","point":true,"type":"brazier","visible":true,"x":800,"y":600}],"type":"objectgroup","visible":true},{"id":10,"name":"Collectible","objects":[{"id":20,"name":"pc11","point":true,"type":"purple_coin","visible":true,"x":190,"y":1030},{"id":21,"name":"pc12","point":true,"type":"purple_coin","visible":true,"x":890,"y":1030},{"id":22,"name":"pc13","point":true,"type":"purple_coin","visible":true,"x":540,"y":1260}],"type":"objectgroup","visible":true},{"id":11,"name":"Secret","objects":[],"type":"objectgroup","visible":true},{"id":12,"name":"Quest","objects":[],"type":"objectgroup","visible":true},{"id":13,"name":"Exit","objects":[],"type":"objectgroup","visible":true}],"nextlayerid":14,"nextobjectid":23,"orientation":"orthogonal","renderorder":"right-down","tiledversion":"1.11.2","tileheight":30,"tilesets":[],"tilewidth":30,"type":"map","version":"1.10","width":36}